X: 3430
M: 3/4
L: 1/8
K: G
(Bc) |\
d2b2a2 | g2f2e2 | d2d^cdc | (d4B2) |
c2cccc | (c4A2) | B2BBBB | B4Bc |\
d2b2a2 | g2f2e2 | d2dddd | d4Bc |\
d2b2a2 | d2b2a2 | [gB][gB][g2B2][g2B2] | [g4B4] :|


